X: 2935
T: Barrel Rafferty's
R: jig
M: 6/8
K: Adorian
E2A AGE|A2B c2E|EDE ~G2E|~A3 GED|
E2A AGE|A2B c2d|ege dBG|1 ~A3 A2G:|2 ~A3 A2d||
|:e2a aga|b2a g2e|ede ~g3|a2e ged|
e2a aga|b2a g2e|age dBG|1 ~A3 A2d:|2 ~A3 A2G||

